X:8
T:Valse  Bouffard
C:Patrick Bouffard
G:French
M:3/4
L:1/4
E:14
F:http://www.freewebs.com/folkbluesnbeyond/48%20bar%20jigs.abc 2007-03-29 06:08:11 UT
K:G
|:"D"F2 E|D2 F|A3|A3|"G"B2 c|dcB|"A"ABA|GFE|\
"D"F2 E|D2 F|A3|A3|"G"B2 c|"A"dec|"D"d3|d3::\
"D"FAd|FAd|"G"GBd|GBd|"A"Ace|Ace|"D"d d/c/d/e/|f2 d|\
"Bm"FAd|FAd|"Em"GBd|GBd|"A"Ace|Ace|"D"d c/d/e/c/|d3:|**
